packages/core/assets/Icons/link.svg

<svg viewBox="0 0 20 20" fill="none" xmlns="http://www.w3.org/2000/svg">
<path d="M5.83329 14.1667C4.68051 14.1667 3.69788 13.7605 2.88538 12.948C2.07288 12.1355 1.66663 11.1528 1.66663 10C1.66663 8.84726 2.07288 7.86462 2.88538 7.05212C3.69788 6.23962 4.68051 5.83337 5.83329 5.83337H8.33329C8.5694 5.83337 8.76732 5.91324 8.92704 6.07296C9.08676 6.23268 9.16663 6.4306 9.16663 6.66671C9.16663 6.90282 9.08676 7.10074 8.92704 7.26046C8.76732 7.42018 8.5694 7.50004 8.33329 7.50004H5.83329C5.13885 7.50004 4.54857 7.7431 4.06246 8.22921C3.57635 8.71532 3.33329 9.3056 3.33329 10C3.33329 10.6945 3.57635 11.2848 4.06246 11.7709C4.54857 12.257 5.13885 12.5 5.83329 12.5H8.33329C8.5694 12.5 8.76732 12.5799 8.92704 12.7396C9.08676 12.8993 9.16663 13.0973 9.16663 13.3334C9.16663 13.5695 9.08676 13.7674 8.92704 13.9271C8.76732 14.0868 8.5694 14.1667 8.33329 14.1667H5.83329ZM7.49996 10.8334C7.26385 10.8334 7.06593 10.7535 6.90621 10.5938C6.74649 10.4341 6.66663 10.2362 6.66663 10C6.66663 9.76393 6.74649 9.56601 6.90621 9.40629C7.06593 9.24657 7.26385 9.16671 7.49996 9.16671H12.5C12.7361 9.16671 12.934 9.24657 13.0937 9.40629C13.2534 9.56601 13.3333 9.76393 13.3333 10C13.3333 10.2362 13.2534 10.4341 13.0937 10.5938C12.934 10.7535 12.7361 10.8334 12.5 10.8334H7.49996ZM11.6666 14.1667C11.4305 14.1667 11.2326 14.0868 11.0729 13.9271C10.9132 13.7674 10.8333 13.5695 10.8333 13.3334C10.8333 13.0973 10.9132 12.8993 11.0729 12.7396C11.2326 12.5799 11.4305 12.5 11.6666 12.5H14.1666C14.8611 12.5 15.4513 12.257 15.9375 11.7709C16.4236 11.2848 16.6666 10.6945 16.6666 10C16.6666 9.3056 16.4236 8.71532 15.9375 8.22921C15.4513 7.7431 14.8611 7.50004 14.1666 7.50004H11.6666C11.4305 7.50004 11.2326 7.42018 11.0729 7.26046C10.9132 7.10074 10.8333 6.90282 10.8333 6.66671C10.8333 6.4306 10.9132 6.23268 11.0729 6.07296C11.2326 5.91324 11.4305 5.83337 11.6666 5.83337H14.1666C15.3194 5.83337 16.302 6.23962 17.1145 7.05212C17.927 7.86462 18.3333 8.84726 18.3333 10C18.3333 11.1528 17.927 12.1355 17.1145 12.948C16.302 13.7605 15.3194 14.1667 14.1666 14.1667H11.6666Z" fill="currentColor"/>
</svg>

<svg xmlns="http://www.w3.org/2000/svg" width="20" height="20" fill="none" viewBox="0 0 20 20">
  <path fill="#201F1F" d="M5.833 14.167c-1.152 0-2.135-.406-2.948-1.219-.812-.813-1.218-1.795-1.218-2.948s.406-2.135 1.218-2.948c.813-.812 1.796-1.219 2.948-1.219h2.5c.236 0 .434.08.594.24.16.16.24.358.24.594s-.08.434-.24.593a.806.806 0 0 1-.594.24h-2.5a2.41 2.41 0 0 0-1.77.73 2.41 2.41 0 0 0-.73 1.77c0 .694.243 1.285.73 1.77a2.41 2.41 0 0 0 1.77.73h2.5c.236 0 .434.08.594.24.16.16.24.357.24.593s-.08.434-.24.594a.806.806 0 0 1-.594.24h-2.5ZM7.5 10.833a.806.806 0 0 1-.594-.24.806.806 0 0 1-.24-.593c0-.236.08-.434.24-.594.16-.16.358-.24.594-.24h5c.236 0 .434.08.594.24.16.16.24.358.24.594s-.08.434-.24.594a.806.806 0 0 1-.594.24h-5Zm4.167 3.334a.806.806 0 0 1-.594-.24.806.806 0 0 1-.24-.594c0-.236.08-.434.24-.593.16-.16.357-.24.594-.24h2.5c.694 0 1.284-.243 1.77-.73a2.41 2.41 0 0 0 .73-1.77 2.41 2.41 0 0 0-.73-1.77 2.411 2.411 0 0 0-1.77-.73h-2.5a.806.806 0 0 1-.594-.24.806.806 0 0 1-.24-.593c0-.236.08-.434.24-.594.16-.16.357-.24.594-.24h2.5c1.152 0 2.135.407 2.947 1.22.813.812 1.22 1.794 1.22 2.947s-.407 2.136-1.22 2.948c-.812.813-1.795 1.219-2.947 1.219h-2.5Z"/>
</svg>
